24x24/actions/labplot-worksheet-new.svg

<svg height="24" width="24" xmlns="http://www.w3.org/2000/svg"><path d="m6 3-4 4v12h3v-1h-2v-10h4v-4h12v3h1v-4zm8 4-4.002 4.002h-1.996v1h2.41l3.59-3.59 2.123 2.123.006-.004.004.004 2.828-2.828c.003.005-.707-.707-.707-.707l-2.126 2.125-2.126-2.125-.002.002zm-7 2v10h7v-1h-6v-4h2.46l3.536 3.535.002-.002.002.002v-1.414l-.002.002-3.123-3.123h-2.875v-4zm10 5v2h-2v1h2v2h1v-2h2v-1h-2v-2z" fill="#555e70" transform="translate(1 1)"/></svg>

<svg xmlns="http://www.w3.org/2000/svg" width="24" height="24"><path style="fill:currentColor;fill-opacity:1;stroke:none;color:#555e70" d="M6 3 2 7v12h3v-1H3V8h4V4h12v3h1V3H6zm8 4-4.002 4.002H8.002v1h2.41l3.59-3.59 2.123 2.123.006-.004.004.004 2.828-2.828c.003.005-.707-.707-.707-.707L16.13 9.125 14.004 7l-.002.002L14 7zM7 9v10h7v-1H8v-4h2.46l3.536 3.535.002-.002.002.002v-1.414l-.002.002L10.875 13H8V9H7zm10 5v2h-2v1h2v2h1v-2h2v-1h-2v-2h-1z" transform="translate(1 1)"/></svg>
